src/assets/img/creator/type-cards/svg/podcast.svg

<svg fill="none" height="150" viewBox="0 0 150 150" width="150" xmlns="http://www.w3.org/2000/svg"><path d="m0 0h150v150h-150z"/><g stroke="#fcfbff" stroke-linecap="round" stroke-linejoin="round" stroke-width="7"><path d="m75 19.083c-4.0446 0-7.9235 1.6067-10.7834 4.4666-2.8599 2.86-4.4666 6.7389-4.4666 10.7834v40.6667c0 4.0445 1.6067 7.9234 4.4666 10.7834 2.8599 2.8599 6.7388 4.4666 10.7834 4.4666s7.9235-1.6067 10.7834-4.4666c2.8599-2.86 4.4666-6.7389 4.4666-10.7834v-40.6667c0-4.0445-1.6067-7.9234-4.4666-10.7834-2.8599-2.8599-6.7388-4.4666-10.7834-4.4666z"/><path d="m110.584 64.833v10.1667c0 9.4373-3.749 18.488-10.422 25.1613-6.6736 6.673-15.7244 10.422-25.1617 10.422s-18.488-3.749-25.1612-10.422c-6.6732-6.6733-10.4221-15.724-10.4221-25.1613v-10.1667"/><path d="m75 110.583v20.333"/><path d="m54.667 130.917h40.6667"/></g></svg>

<svg width="150" height="150" viewBox="0 0 150 150" fill="none" xmlns="http://www.w3.org/2000/svg">
<rect width="150" height="150" />
<g id="poscast">
<path id="Vector" d="M75 19.083C70.9554 19.083 67.0765 20.6897 64.2166 23.5496C61.3567 26.4096 59.75 30.2885 59.75 34.333V74.9997C59.75 79.0442 61.3567 82.9231 64.2166 85.7831C67.0765 88.643 70.9554 90.2497 75 90.2497C79.0446 90.2497 82.9235 88.643 85.7834 85.7831C88.6433 82.9231 90.25 79.0442 90.25 74.9997V34.333C90.25 30.2885 88.6433 26.4096 85.7834 23.5496C82.9235 20.6897 79.0446 19.083 75 19.083Z" stroke="#FCFBFF" stroke-width="7" stroke-linecap="round" stroke-linejoin="round"/>
<path id="Vector_2" d="M110.584 64.833V74.9997C110.584 84.437 106.835 93.4877 100.162 100.161C93.4884 106.834 84.4376 110.583 75.0003 110.583C65.563 110.583 56.5123 106.834 49.8391 100.161C43.1659 93.4877 39.417 84.437 39.417 74.9997V64.833" stroke="#FCFBFF" stroke-width="7" stroke-linecap="round" stroke-linejoin="round"/>
<path id="Vector_3" d="M75 110.583V130.916" stroke="#FCFBFF" stroke-width="7" stroke-linecap="round" stroke-linejoin="round"/>
<path id="Vector_4" d="M54.667 130.917H95.3337" stroke="#FCFBFF" stroke-width="7" stroke-linecap="round" stroke-linejoin="round"/>
</g>
</svg>
